public/images/ico_plus.svg

<svg height="14" viewBox="0 0 14 14" width="14" xmlns="http://www.w3.org/2000/svg"><path d="m19 11h-6v-6h-2v6h-6v2h6v6h2v-6h6z" fill="#fff" fill-rule="evenodd" transform="translate(-5 -5)"/></svg>

<?xml version="1.0" encoding="UTF-8" standalone="no"?>
<svg width="14px" height="14px" viewBox="0 0 14 14" version="1.1" xmlns="http://www.w3.org/2000/svg" xmlns:xlink="http://www.w3.org/1999/xlink" xmlns:sketch="http://www.bohemiancoding.com/sketch/ns">
    <!-- Generator: Sketch 3.2.2 (9983) - http://www.bohemiancoding.com/sketch -->
    <title>Shape</title>
    <desc>Created with Sketch.</desc>
    <defs></defs>
    <g id="Android" stroke="none" stroke-width="1" fill="none" fill-rule="evenodd" sketch:type="MSPage">
        <g id="Your-Secret-Data" sketch:type="MSArtboardGroup" transform="translate(-310.000000, -541.000000)" fill="#FFFFFF">
            <g id="fab-2" sketch:type="MSLayerGroup" transform="translate(289.000000, 520.000000)">
                <g id="add" transform="translate(16.000000, 16.000000)" sketch:type="MSShapeGroup">
                    <path d="M19,11 L13,11 L13,5 L11,5 L11,11 L5,11 L5,13 L11,13 L11,19 L13,19 L13,13 L19,13 L19,11 L19,11 Z" id="Shape"></path>
                </g>
            </g>
        </g>
    </g>
</svg>
